svgs/arm_mc.svg

<svg width="192" height="192" viewBox="0 0 192 192" fill="none" xmlns="http://www.w3.org/2000/svg">
<path d="M29 44H44C49.5228 44 54 48.4772 54 54V83" stroke="black" stroke-width="12" stroke-linecap="round"/>
<path d="M54 66C53.5 79.5 39.0751 85 33 85C26.9249 85 22 80.0751 22 74" stroke="black" stroke-width="12"/>
<path d="M33 63H54" stroke="black" stroke-width="10"/>
<path d="M23 74C23 67.9249 27.4772 63 33 63" stroke="black" stroke-width="10"/>
<path d="M21 74C21 67.9249 26.3726 63 33 63" stroke="black" stroke-width="10"/>
<path d="M91 44H84C78.4772 44 74 48.4772 74 54V83" stroke="black" stroke-width="12" stroke-linecap="round"/>
<path d="M170 83V58.5C170 50.4919 163.508 44 155.5 44C147.492 44 141 50.4919 141 58.5V83" stroke="black" stroke-width="12" stroke-linecap="round"/>
<path d="M141 83V59C141 50.7157 134.284 44 126 44C117.716 44 111 50.7157 111 59V83" stroke="black" stroke-width="12" stroke-linecap="round"/>
<path d="M111 44V83" stroke="black" stroke-width="12" stroke-linecap="round"/>
<path d="M81 148V123.5C81 115.492 74.5081 109 66.5 109C58.4919 109 52 115.492 52 123.5V148" stroke="black" stroke-width="12" stroke-linecap="round"/>
<path d="M52 148V124C52 115.716 45.2843 109 37 109C28.7157 109 22 115.716 22 124V148" stroke="black" stroke-width="12" stroke-linecap="round"/>
<path d="M22 109V148" stroke="black" stroke-width="12" stroke-linecap="round"/>
<path d="M134.289 142.289C126.673 149.904 114.327 149.904 106.711 142.289C99.0962 134.673 99.0962 122.327 106.711 114.711C114.327 107.096 126.673 107.096 134.289 114.711" stroke="black" stroke-width="12" stroke-linecap="round"/>
</svg>

<svg xmlns="http://www.w3.org/2000/svg" width="192" height="192" fill="none" viewBox="0 0 192 192"><path stroke="#000" stroke-linecap="round" stroke-width="12" d="M29 44h15c5.523 0 10 4.477 10 10v29"/><path stroke="#000" stroke-width="12" d="M54 66c-.5 13.5-14.925 19-21 19s-11-4.925-11-11"/><path stroke="#000" stroke-width="10" d="M33 63h21M23 74c0-6.075 4.477-11 10-11"/><path stroke="#000" stroke-width="10" d="M21 74c0-6.075 5.373-11 12-11"/><path stroke="#000" stroke-linecap="round" stroke-width="12" d="M91 44h-7c-5.523 0-10 4.477-10 10v29m96 0V58.5c0-8.008-6.492-14.5-14.5-14.5S141 50.492 141 58.5V83m0 0V59c0-8.284-6.716-15-15-15s-15 6.716-15 15v24m0-39v39m-30 65v-24.5c0-8.008-6.492-14.5-14.5-14.5S52 115.492 52 123.5V148m0 0v-24c0-8.284-6.716-15-15-15s-15 6.716-15 15v24m0-39v39m112.289-5.711c-7.616 7.615-19.962 7.615-27.578 0s-7.615-19.962 0-27.578 19.962-7.615 27.578 0"/></svg>
